X:1
T:Who can Help it Now?
M:C|
L:1/8
R:Reel
S:William Vickers' 1770 music manuscript collection (Northumberland)
K:G
G>AG>e dBAG|g>ag>e d2B2|g>age dBAG|(3ABc BA B2G2:|
|:gdBd gdBG|g>efg a2A2|gdBd gdBG|(3ABc BA B2G2:|]

